X:1
T:La Cartagenera
T:La Cartagenera
T:Francisco Tárrega (1852 - 1909)
C:Francisco Tárrega
%%score ( 1 2 3 )
L:1/8
Q:1/4=150
M:3/4
K:G
V:1 treble-8 nm="Classical Guitar" snm="Guit."
V:2 treble-8 
V:3 treble-8 
V:1
"^Allegro" B,^D FA B^d |"^VII" [^dfb]2 ^d'2 [af']2 |"_XII" z2 [be']2 [be']2 | %3
 z2"^X" [ad']2 [ad']2 |{/d'} c'b c'd ef | [gb]2 d2 e2 |{/fg} f2 e2 d2 | c2 [Acf]2 [Acf]2 | %8
"^V"{/ab} ag fe dc |"^VII" (f/g/a/)(b/ c'/b/a/g/ f/e/d/c/) | z2 [FB^d]2 [Bdf]2 | ^d2 de fd | %12
 [Gce]2 gc' e'g' | (3(g'=f')e' (3(f'e')d' (3(e'd')c' | (3(d'c')b (3(c'b)a (3(ba)g | %15
!-(!{/d} !-)!=f4 e2 | z2 [Gce]2 [Gce]2 |!-(!{/B} !-)!d2 cB Ac | z2 [^DAB]2 [DAB]2 | [AB]^A Bc B2 | %20
 [AB]^A Bc B2 | [GB]^A Bc B2 |"^IV"{/d} cB cd c2 |{/c} BA Bc de | (3(fe)d (3(cB)A (3(^GA)B | %25
 (3(dc)B (3(AG)F (3(ED)C | z2 [^DAB]2 [DAB]2 ||"^VII" z2 f'2 b'2 | ^d2 e2 f2 | g2 e2"^VII" f2 | %30
 ^d2 e2 c2 | z2{/b} a^g a2 | z2{/a} gf g2 | z2{/g} f^e f2 | z2{/f} e^d e2 | %35
 (3(ef)g (3(ag)f (3(ed)c | z2"^VII" [B^dfb]2 [Bdfb]2 | !arpeggio![FB^dfb]6 || %38
[Q:1/4=150]"^Copla" F2 G2 A2 | c2 c2 c2 | z2 [GB]2 [GB]2 | [GB]2 [GB]4 | z2 [GB]2 [GB]2 | %43
 z2 [GB]4 | z2 [GB]4 | z2 [Gc]2 [Gc]2 | z2 [EGc]2 [EGc]2 | F2 G2 A2 | c2 c2 c2 | z2 [GB]2 [GB]2 | %50
 [GB]2 [GB]4 | z2 [Ge]2 [Ge]2 | z2 [Ge]4 |{/A} G2 FG A2 | z2 [Adf]2 [Adf]2 |{/A} G2 FE F2 | %56
 z2 C2 F2 |{/F} E2 DC B,A, | z2 [B,D]2 z2 | [Ge]6 | e6 |{/EF} E2 DC B,2 | %62
 z2"^VII" !arpeggio![FB^dfb]2 !arpeggio![FBdfb]2 | !arpeggio![FB^dfb]6 ||xf (ba) eg |"^V"xe ag df | %66
"^III"xd gf ce |"^II"xc fe Bd |xB (ed)"^II" Ac |xA dc GB | [GB]2 [GBd]2 [GBe]2 | %71
 [Acf]2"^III" [Bdg]2"^V" [cea]2 |"^VII" (3(d'c')b (3(ag)f (3(ed)c | z2 [B^dfb]2 [Bdfb]2 | %74
 [AB]^A Bc B2 | [AB]^A Bc B2 | [GB]^A Bc B2 |"^IV"{/d} cB cd c2 |{/c} BA Bc de | %79
 (3(fe)d (3(cB)A (3(^GA)B | (3(dc)B (3(AG)F (3(ED)C | z2 [^DAB]2 [DAB]2 |"^VII" z2 f'2 b'2 | %83
 a2 g2 f2 |"_VII" z2"^XII" b2 e'2 | d2 c2 B2 |{/d} cB cd ec | B2 ^de fd | ed cB AG | Fc BA GF | %90
 EB AG FE | DA GF ED | z2 [Ge]2 [Ge]2 | [Ge]6 | z2 [Ge]2 [Ge]2 | [Ge]6 | z2 [CAe]2 [CAe]2 | %97
 [CAe]6 | z2"^VII" !arpeggio![FB^dfb]2 !arpeggio![FBdfb]2 | !arpeggio![FB^dfb]6 ||x^d fe df | %101
x^d fe df |xc fe cf |xc fe cf |xB fe Be |xB fe Be |xA ed cd |"^II"xA ed cd |xA ed cd |xA ed (cd) | %110
 z2 [^DAB]2 [DAB]2 | ^DE FG AB | Bc BA F2 |"^III" z2 [DGBdg]2 [DGBdg]2 |"^II" (fg) fe [FAd]2 | %115
 z2 [FAdf]2 [FAdf]2 | (e=f) ed [EGc]2 | z2 [EGce]2 [EGce]2 | (3(dc)B (3(AG)F (3(ED)C | %119
 z2 [^DAB]2 [DAB]2 || d2 e2 f2 | g2 f2 g2 | d2 e4 | d6 |"^II" d2 e2 f2 |{/a} g2 f2 g2 | z2 =f2 e2 | %127
 e6 | d2 e2 f2 | g2 f2 g2 | d2 e4 | d6 |"^II" d2 e2 f2 |{/a} g2 f2 g2 | z2 [G^ce]2 [Gcf]2 | %135
 (d/e/)(f/g/ a/)(b/c'/b/ a/g/f/e/) | d2 e2 f2 | g2 f2 g2 | d2 e4 | d6 |"^II" d2 e2 f2 | %141
{/a} g2 f2 g2 | z2 =f2 e2 | eg fe dc | z2"^VII" [B^dfb]2 [Bdfb]2 || B,^D FA B^d | %146
"^VII" [^dfb]2 ^d'2 [af']2 |"_XII" z2 [be']2 [be']2 | z2"^X" [ad']2 [ad']2 |{/d'} c'b c'd ef | %150
 [gb]2 d2 e2 |{/fg} f2 e2 d2 | c2 [Acf]2 [Acf]2 |"^V"{/ab} ag fe dc | %154
"^VII" ((f/g/a/))((b/ c'/b/a/g/ f/e/d/c/)) | z2 [FB^d]2 [Bdf]2 | ^d2 de fd | [Gce]2 gc' e'g' | %158
 (3(g'=f')e' (3(f'e')d' (3(e'd')c' | (3(d'c')b (3(c'b)a (3(ba)g |!-(!{/d} !-)!=f4 e2 | %161
 z2 [Gce]2 [Gce]2 | d2 cB Ac | z2 [^DAB]2 [DAB]2 | [AB]^A Bc B2 | [AB]^A Bc B2 | [GB]^A Bc B2 | %167
"^IV"{/d} cB cd c2 |{/c} BA Bc de | (3(fe)d (3(cB)A (3(^GA)B | (3(dc)B (3(A=G)F (3(ED)C | %171
 z2 [^DAB]2 [DAB]2 ||"^II" fg (3(agf) (3(agf) |"_VII" z2"^XII" b2"^VII" b'2 | ef (3(gf)e (3(dc)B | %175
 AB (3(cBc) (3(dcB) | A2 c2 f2 | AB (c/B/c/d/) e2 | A2 c2 e2 |"^II" GA (3(BA)G (3(BA)G | G2 B2 e2 | %181
 (3(FG)A (3(BA)B (3(cB)A | z2 [Fce]2 [Fce]2 | (3(fe)d (3(ed)c B2 | z2 [^DAB]2 [DAB]2 || %185
[Q:1/4=150]"^Copla"!-(!{/a} !-)!c'2 ba gf | (eg) (fa){/ga} gf | [ce]2 [cdf]2 [Bdg]2 | %188
"^III" z2 [DGBdg]2 [DGBdg]2 |!-(!{/b} !-)!=f'2 e'd' c'b | (ac') (bd'){/c'd'} (c'b) | %191
 a2 b2"^V" c'2 | z2 [EGce]2 [EGce]2 |!-(!{/a} !-)!c'2 ba gf | (eg) (fa){/ga} gf | %195
 [ce]2 [cdf]2"^III" [Bdg]2 | z2 [DGBdg]2 [DGBdg]2 |!-(!{/^c'} !-)!g'2 f'e' d'c' | %198
 (bd') (^c'e'){/d'e'} (d'c') | b2 ^c'2"^VII" d'2 |"^II" z2 [FAdf]2 [FAdf]2 | %201
!-(!{/a} !-)!c'2 ba gf | (eg) (fa){/ga} (gf) | [ce]2 [cdf]2"^III" [Bdg]2 | z2 [DGBdg]2 [DGBdg]2 | %205
!-(!{/b} !-)!=f'2 e'd' c'd' | e'=f' e'^d' e'2 |xg ^ae' ag | z2 [fb^d']2 [fbd']2 ||x^d fe df | %210
x^d fe df |xc fe cf |xc fe cf |xB fe Be |xB fe Be |xA ed cd |"^II"xA ed cd |xA ed cd |xA ed (cd) | %219
 z2 [^DAB]2 [DAB]2 | (^DE) (FG) (AB) | (Bc) (BA) F2 | z2"^III" [DGBdg]2 [DGBdg]2 | %223
"^II" (fg) fe [FAd]2 | z2 [FAdf]2 [FAdf]2 | (e=f) ed [EGc]2 | z2 [EGce]2 [EGce]2 | %227
 (3(dc)B (3(AG)F (3(ED)C | z2"^VII" !arpeggio![FB^dfb]2 !arpeggio![FBdfb]2 | !arpeggio![FB^dfb]6 |] %230
V:2
 x6 | x6 | g6 | f6 | D6 | G2 B,2 C2 | D2 C2 B,2 | A,6 | [A,c]6 | [A,A]6 | B,6 | z2 F2 A2 | x6 | %13
 G6 | G6 | GG AB c2 | C6 | C6 |!-(!{/F,} !-)!B,6 | [F,^D]6 | [F,^D]6 | [G,E]6 | [A,F]6 | [DG]6 | %24
 A,6 | A,6 | B,6 || B6 | F2 G2 A2 | B2 G2 A2 | F2 G2 E2 | [^DB]2 [DB]2 [DB]2 | [EB]2 [EB]2 [EB]2 | %33
 [^DB]2 [DB]2 [DB]2 | [CG]2 [CG]2 [CG]2 | A,6 |{/F,} B,6 | B,6 || D2 E2 F2 | F6 | [GB]6 | z4 G2 | %42
 c6 | B4 G2 |!-(!{/G} !-)!=F4 F2 |!-(!{/G} !-)!E6 | C6 | D2 E2 F2 | F6 | [GB]6 | z4 c2 | [A,B]6 | %52
!-(!{/B} !-)!A4 G2 | A,6 | D6 | A,6 | A,6 | G,6 | G,4 G2 | c2 B2 A2 | G2 F2 E2 | x6 | B,2 B,2 B,2 | %63
 B,6 || ^d4 e2 | ^c4 d2 | B4 c2 | ^A4 B2 | ^G4 A2 | F4 G2 | x6 | x6 | [A,A]6 | B,6 | [F,^D]6 | %75
 [F,^D]6 | [G,E]6 | [A,F]6 | [DG]6 | A,6 | A,6 | B,6 | B6 | c2 B2 A2 | B6 | F2 E2 ^D2 | E6 | %87
 ^D2 F2 A2 | G6 | A,6 | G,6 | F,6 | [E,C]6- | [E,C]E, F,G, F,E, | C6- | CE, F,G, F,E, | F,6 | %97
 F,E, F,G, F,E, |!-(!{/F,} !-)!B,6 | B,6 || B6 | B6 | A6 | A6 | G6 | G6 | F6 | E6 | D6 | C6 | B,6 | %111
 x6 | x6 | G,6 | D6 | D6 | C6 | C6 | A,6 | B,6 || z2 [Ac]2 [Ac]2 | z2 [Ac]2 [Ac]2 | %122
 z2 [DGB]2 [DGB]2 | z2 [GB]2 [GB]2 | z2 B2 [Bd]2 | z2 [Bd]2 [Bd]2 | z2 [GB]2 [Gc]2 | %127
 z2 [Gc]2 [Gc]2 | z2 [Ac]2 [Ac]2 | z2 [Ac]2 [Ac]2 | z2 [DGB]2 [DGB]2 | z2 [GB]2 [GB]2 | %132
 z2 B2 [Bd]2 | z2 [Bd]2 [Bd]2 | A,6 | D6 | z2 [Ac]2 [Ac]2 | z2 [Ac]2 [Ac]2 | z2 [DGB]2 [DGB]2 | %139
 z2 [GB]2 [GB]2 | z2 B2 [Bd]2 | z2 [Bd]2 [Bd]2 | z2 [GB]2 [Gc]2 | c6 |!-(!{/F,} !-)!B,6 || x6 | %146
 x6 | g6 | f6 | D6 | G2 B,2 C2 | D2 C2 B,2 | A,6 | [A,c]6 | [A,A]6 | B,6 | z2 F2 A2 | x6 | G6 | %159
 G6 | GG AB c2 | C6 | C6 |!-(!{/F,} !-)!B,6 | [F,^D]6 | [F,^D]6 | [G,E]6 | [A,F]6 | [DG]6 | A,6 | %170
 A,6 | B,6 || [B,A]6 | B6 | [B,G]6 | B,6 | B,6 | B,6 | B,6 | B,6 | B,6 | B,6 | A,6 | A,6 | %184
!-(!{/F,} !-)!B,6 || D6 | c2 d2 B2 | x6 | G,6 | G6 | =f2 g2 e2 | =f2 [Gdf]2 [ce]2 | C6 | D6 | %194
 c2 d2 B2 | x6 | G,6 | A,6 | g2 a2 f2 | g2 [Aeg]2 [df]2 | D6 | D6 | c2 d2 B2 | x6 | G,6 | G6 | %206
 [cg]6 | c6 | B6 || B6 | B6 | A6 | A6 | G6 | G6 | F6 | E6 | D6 | C6 | B,6 | x6 | x6 | G,6 | D6 | %224
 D6 | C6 | C6 | A,6 |!-(!{/F,} !-)!B,6 | B,6 |] %230
V:3
 x6 | x6 | x6 | x6 | x6 | x6 | x6 | x6 | x6 | x6 | x6 | B,6 | x6 | x6 | x6 | x6 | x6 | x6 | x6 | %19
 x6 | x6 | x6 | x6 | x6 | x6 | x6 | x6 || x6 | x6 | x6 | x6 | x6 | x6 | x6 | x6 | x6 | x6 | x6 || %38
 x6 | x6 | x6 | x6 | x6 | x6 | x6 | x6 | x6 | x6 | x6 | x6 | x6 | x6 | A,6 | x6 | x6 | x6 | x6 | %57
 x6 | x6 | x6 | x6 | x6 | x6 | x6 || x6 | x6 | x6 | x6 | x6 | x6 | x6 | x6 | x6 | x6 | x6 | x6 | %76
 x6 | x6 | x6 | x6 | x6 | x6 | x6 | x6 | x6 | x6 | x6 | x6 | x6 | x6 | x6 | x6 | x6 | x6 | x6 | %95
 x6 | x6 | x6 | x6 | x6 || x6 | x6 | x6 | x6 | x6 | x6 | x6 | x6 | x6 | x6 | x6 | x6 | x6 | x6 | %114
 x6 | x6 | x6 | x6 | x6 | x6 || D6 | D6 | B,6 | G,6 | B,6 | B,6 | C6 | C6 | D6 | D6 | B,6 | G,6 | %132
 B,6 | B,6 | x6 | x6 | D6 | D6 | B,6 | G,6 | B,6 | B,6 | C6 | x6 | x6 || x6 | x6 | x6 | x6 | x6 | %150
 x6 | x6 | x6 | x6 | x6 | x6 | B,6 | x6 | x6 | x6 | x6 | x6 | x6 | x6 | x6 | x6 | x6 | x6 | x6 | %169
 x6 | x6 | x6 || x6 | x6 | x6 | x6 | x6 | x6 | x6 | x6 | x6 | x6 | x6 | x6 | x6 || x6 | x6 | x6 | %188
 x6 | x6 | x6 | x6 | x6 | x6 | x6 | x6 | x6 | x6 | x6 | x6 | x6 | x6 | x6 | x6 | x6 | x6 | x6 | %207
 x6 | x6 || x6 | x6 | x6 | x6 | x6 | x6 | x6 | x6 | x6 | x6 | x6 | x6 | x6 | x6 | x6 | x6 | x6 | %226
 x6 | x6 | x6 | x6 |] %230

